modules/themify-icons/icons/layout-sidebar-none.svg

<?xml version="1.0" encoding="utf-8"?>
<!-- Generated by IcoMoon.io -->
<!DOCTYPE svg PUBLIC "-//W3C//DTD SVG 1.1//EN" "http://www.w3.org/Graphics/SVG/1.1/DTD/svg11.dtd">
<svg version="1.1" xmlns="http://www.w3.org/2000/svg" xmlns:xlink="http://www.w3.org/1999/xlink" width="17" height="17" viewBox="0 0 17 17">
<g>
</g>
	<path d="M0 16h1v1h-1v-1zM14 17h1v-1h-1v1zM12 17h1v-1h-1v1zM10 17h1v-1h-1v1zM8 17h1v-1h-1v1zM6 17h1v-1h-1v1zM2 17h1v-1h-1v1zM4 17h1v-1h-1v1zM16 17h1v-1h-1v1zM16 11h1v-1h-1v1zM16 13h1v-1h-1v1zM16 5h1v-1h-1v1zM16 9h1v-1h-1v1zM16 7h1v-1h-1v1zM16 3h1v-1h-1v1zM16 15h1v-1h-1v1zM16 0v1h1v-1h-1zM4 1h1v-1h-1v1zM2 1h1v-1h-1v1zM12 1h1v-1h-1v1zM10 1h1v-1h-1v1zM6 1h1v-1h-1v1zM14 1h1v-1h-1v1zM8 1h1v-1h-1v1zM0 1h1v-1h-1v1zM0 13h1v-1h-1v1zM0 15h1v-1h-1v1zM0 11h1v-1h-1v1zM0 5h1v-1h-1v1zM0 9h1v-1h-1v1zM0 3h1v-1h-1v1zM0 7h1v-1h-1v1z" fill="#000000" />
</svg>

<svg xmlns="http://www.w3.org/2000/svg" width="17" height="17" viewBox="0 0 17 17"><path d="M0 16h1v1H0v-1zm14 1h1v-1h-1v1zm-2 0h1v-1h-1v1zm-2 0h1v-1h-1v1zm-2 0h1v-1H8v1zm-2 0h1v-1H6v1zm-4 0h1v-1H2v1zm2 0h1v-1H4v1zm12 0h1v-1h-1v1zm0-6h1v-1h-1v1zm0 2h1v-1h-1v1zm0-8h1V4h-1v1zm0 4h1V8h-1v1zm0-2h1V6h-1v1zm0-4h1V2h-1v1zm0 12h1v-1h-1v1zm0-15v1h1V0h-1zM4 1h1V0H4v1zM2 1h1V0H2v1zm10 0h1V0h-1v1zm-2 0h1V0h-1v1zM6 1h1V0H6v1zm8 0h1V0h-1v1zM8 1h1V0H8v1zM0 1h1V0H0v1zm0 12h1v-1H0v1zm0 2h1v-1H0v1zm0-4h1v-1H0v1zm0-6h1V4H0v1zm0 4h1V8H0v1zm0-6h1V2H0v1zm0 4h1V6H0v1z"/></svg>
